usr/share/icons/biglinux-icons-material/scalable/apps/securecrt.svg

<svg xmlns="http://www.w3.org/2000/svg" xmlns:xlink="http://www.w3.org/1999/xlink" xml:space="preserve" width="24" height="24" image-rendering="optimizeSpeed"><defs><radialGradient id="b" cx="0" cy="0" r="1" fx="0" fy="0" gradientTransform="matrix(0 16.5 -16.5 0 9 .75)" gradientUnits="userSpaceOnUse" spreadMethod="pad"><stop offset="0" style="stop-opacity:1;stop-color:#bfc1c3"/><stop offset="1" style="stop-opacity:1;stop-color:#72787e"/></radialGradient><image xlink:href="data:image/png;base64,iVBORw0KGgoAAAANSUhEUgAAACgAAAARCAYAAACvi+4IAAAACXBIWXMAAA7DAAAOwwHHb6hkAAAAGXRFWHRTb2Z0d2FyZQB3d3cuaW5rc2NhcGUub3Jnm+48GgAAAGhJREFUSIntzrENgDAMRFHOcp3NMgDLZwUkKAhCimmojyLFueBLv3+ota5L4kwN+OoHzvYDZ0sPdAChRrB8jJEbaGa3GsHyiDjVCJYD2NUIlgPY1AiW995zA0sphxrB8tbapUaw8J62B0eWFdJvUfl1AAAAAElFTkSuQmCC" id="a" width="40" height="17"/></defs><path d="M7.195.836c.09 0 .176-.012.258-.035a23.86 23.86 0 0 1 3.231.008 10.26 10.26 0 0 1 2.836.636c1.519.625 2.558 1.711 3.121 3.254.316.93.507 1.887.566 2.867a21.227 21.227 0 0 1-.086 3.696 8.976 8.976 0 0 1-.672 2.488c-.637 1.383-1.672 2.336-3.101 2.859a11.693 11.693 0 0 1-3.575.618 15.998 15.998 0 0 1-4.089-.309c-2.481-.551-4.016-2.066-4.594-4.543a14.244 14.244 0 0 1-.336-3.383c-.027-1.211.101-2.41.387-3.59.609-2.312 2.078-3.746 4.406-4.3A10.27 10.27 0 0 1 7.195.836Z" style="fill:url(#b);fill-rule:evenodd;stroke:none" transform="matrix(1.33333 0 0 1.33333 0 0)"/><path d="M14 12.855H7.039a.49.49 0 0 0-.5.481c0 .262.223.476.5.476H14c.277 0 .5-.214.5-.476a.49.49 0 0 0-.5-.481zM4.059 4.191a.51.51 0 0 0-.493.235.475.475 0 0 0-.05.363.496.496 0 0 0 .086.168.48.48 0 0 0 .148.121l5.344 2.961-5.344 2.965a.545.545 0 0 0-.148.121.536.536 0 0 0-.086.168.475.475 0 0 0 .05.363.511.511 0 0 0 .684.176l6.027-3.344a.455.455 0 0 0 .176-.172.413.413 0 0 0 .063-.234c.004-.016.004-.027.004-.039 0-.016 0-.027-.004-.043 0-.082-.02-.16-.063-.23a.455.455 0 0 0-.176-.172L4.25 4.25a.559.559 0 0 0-.191-.059Z" style="fill:#fafafa;fill-opacity:1;fill-rule:nonzero;stroke:none" transform="matrix(1.33333 0 0 1.33333 0 0)"/><path d="M13.488 8.668a5.961 5.961 0 0 0-4.226 1.754 5.974 5.974 0 0 0-1.75 4.226c0 .895.203 1.774.593 2.579.555.031 1.11.031 1.668 0a11.709 11.709 0 0 0 3.575-.618c1.429-.523 2.464-1.476 3.101-2.859a8.976 8.976 0 0 0 .672-2.488c.047-.43.078-.856.098-1.285a5.968 5.968 0 0 0-3.731-1.309Z" style="fill:#32a8ff;fill-opacity:1;fill-rule:nonzero;stroke:none" transform="matrix(1.33333 0 0 1.33333 0 0)"/><path d="M10.5 11.656v.5c0 .274.227.5.496.5a4.491 4.491 0 0 1 4.184 2.86 5.02 5.02 0 0 0 .722-.821 5.481 5.481 0 0 0-4.906-3.039zm0 1.996v.496c0 .274.227.5.496.5 1.164 0 2.168.801 2.43 1.93.324-.121.629-.266.91-.433a3.483 3.483 0 0 0-3.34-2.493zm.996 1.993a.997.997 0 0 0-.836 1.535c.61-.055 1.207-.157 1.797-.309a.995.995 0 0 0-.961-1.226z" style="fill:#fff;fill-opacity:1;fill-rule:nonzero;stroke:none" transform="matrix(1.33333 0 0 1.33333 0 0)"/></svg>

<?xml version="1.0" encoding="UTF-8" standalone="no"?>
<svg
   width="24"
   height="24"
   image-rendering="optimizeSpeed"
   version="1.1"
   id="svg74919"
   sodipodi:docname="securecrt.svg"
   xml:space="preserve"
   inkscape:version="1.2.2 (b0a8486541, 2022-12-01)"
   inkscape:export-filename="securecrt.pdf"
   inkscape:export-xdpi="96"
   inkscape:export-ydpi="96"
   xmlns:inkscape="http://www.inkscape.org/namespaces/inkscape"
   xmlns:sodipodi="http://sodipodi.sourceforge.net/DTD/sodipodi-0.dtd"
   xmlns:xlink="http://www.w3.org/1999/xlink"
   xmlns="http://www.w3.org/2000/svg"
   xmlns:svg="http://www.w3.org/2000/svg"><defs
     id="defs74923"><radialGradient
       id="paint0_radial_3_321"
       cx="0"
       cy="0"
       r="1"
       gradientUnits="userSpaceOnUse"
       gradientTransform="matrix(0,22,-22,0,11.999988,1.0000149)"><stop
         stop-color="#555555"
         id="stop180"
         offset="0"
         style="stop-color:#bfc1c3;stop-opacity:1;" /><stop
         offset="1"
         stop-color="#222222"
         id="stop182"
         style="stop-color:#72787e;stop-opacity:1;" /></radialGradient><pattern
       id="pattern0"
       patternContentUnits="objectBoundingBox"
       width="1"
       height="1"><use
         xlink:href="#image0_1_33"
         transform="scale(0.025 0.0588235)"
         id="use5755" /></pattern><radialGradient
       id="paint0_radial_1_33"
       cx="0"
       cy="0"
       r="1"
       gradientUnits="userSpaceOnUse"
       gradientTransform="matrix(0,11,-11,0,-5.656406,32.974106)"><stop
         stop-color="#6EBBF7"
         id="stop5758" /><stop
         offset="1"
         stop-color="#2196F3"
         id="stop5760" /></radialGradient><linearGradient
       id="paint1_linear_1_33"
       x1="12.5729"
       y1="9.9947901"
       x2="12.5729"
       y2="4.5520802"
       gradientUnits="userSpaceOnUse"
       gradientTransform="translate(-17.656406,31.974106)"><stop
         stop-color="#C0C0C0"
         id="stop5763" /><stop
         offset="1"
         stop-color="#FAFAFA"
         stop-opacity="0.992"
         id="stop5765" /></linearGradient><radialGradient
       id="paint2_radial_1_33"
       cx="0"
       cy="0"
       r="1"
       gradientUnits="userSpaceOnUse"
       gradientTransform="matrix(-16.041697,7.333289,-14.666578,-32.083393,2.135294,40.307436)"><stop
         stop-color="#777777"
         id="stop5768" /><stop
         offset="1"
         stop-color="#333333"
         id="stop5770" /></radialGradient><image
       id="image0_1_33"
       width="40"
       height="17"
       xlink:href="data:image/png;base64,iVBORw0KGgoAAAANSUhEUgAAACgAAAARCAYAAACvi+4IAAAACXBIWXMAAA7DAAAOwwHHb6hkAAAAGXRFWHRTb2Z0d2FyZQB3d3cuaW5rc2NhcGUub3Jnm+48GgAAAGhJREFUSIntzrENgDAMRFHOcp3NMgDLZwUkKAhCimmojyLFueBLv3+ota5L4kwN+OoHzvYDZ0sPdAChRrB8jJEbaGa3GsHyiDjVCJYD2NUIlgPY1AiW995zA0sphxrB8tbapUaw8J62B0eWFdJvUfl1AAAAAElFTkSuQmCC" /><linearGradient
       id="a"
       x1="1"
       x2="47"
       gradientTransform="matrix(0,-0.2991,0.2991,0,33.038,286.45)"
       gradientUnits="userSpaceOnUse"><stop
         stop-color="#015093"
         offset="0"
         id="stop5897" /><stop
         stop-color="#015ca7"
         offset="1"
         id="stop5899" /></linearGradient><linearGradient
       id="paint0_linear_3_286"
       x1="12"
       y1="1"
       x2="12"
       y2="12"
       gradientUnits="userSpaceOnUse"><stop
         stop-color="#EEA5FF"
         id="stop5936" /><stop
         offset="1"
         stop-color="#A159B2"
         id="stop5938" /></linearGradient><linearGradient
       id="a-7"
       x1="1"
       x2="47"
       gradientTransform="matrix(0,-0.3501678,0.3501678,0,9.5929137,27.974637)"
       gradientUnits="userSpaceOnUse"><stop
         stop-color="#015093"
         offset="0"
         id="stop5897-9" /><stop
         stop-color="#015ca7"
         offset="1"
         id="stop5899-2" /></linearGradient><radialGradient
       fx="0"
       fy="0"
       cx="0"
       cy="0"
       r="1"
       gradientUnits="userSpaceOnUse"
       gradientTransform="matrix(0,16.5,-16.5,0,8.999991,0.750011)"
       spreadMethod="pad"
       id="radialGradient77264"><stop
         style="stop-opacity:1;stop-color:#bfc1c3"
         offset="0"
         id="stop77260" /><stop
         style="stop-opacity:1;stop-color:#72787e"
         offset="1"
         id="stop77262" /></radialGradient><radialGradient
       fx="0"
       fy="0"
       cx="0"
       cy="0"
       r="1"
       gradientUnits="userSpaceOnUse"
       gradientTransform="matrix(0,16.5,-16.5,0,8.999991,0.750011)"
       spreadMethod="pad"
       id="radialGradient77264-6"><stop
         style="stop-opacity:1;stop-color:#bfc1c3"
         offset="0"
         id="stop77260-0" /><stop
         style="stop-opacity:1;stop-color:#72787e"
         offset="1"
         id="stop77262-4" /></radialGradient></defs><sodipodi:namedview
     id="namedview74921"
     pagecolor="#ffffff"
     bordercolor="#000000"
     borderopacity="0.25"
     inkscape:showpageshadow="2"
     inkscape:pageopacity="0.0"
     inkscape:pagecheckerboard="0"
     inkscape:deskcolor="#d1d1d1"
     showgrid="false"
     inkscape:zoom="6.625"
     inkscape:cx="34.716981"
     inkscape:cy="25.886792"
     inkscape:window-width="2560"
     inkscape:window-height="1000"
     inkscape:window-x="1680"
     inkscape:window-y="0"
     inkscape:window-maximized="1"
     inkscape:current-layer="svg74919" /><g
     id="g77248"
     transform="matrix(1.3333333,0,0,1.3333333,-4.5225532e-4,-2.7141261e-4)"><g
       id="g77250"><g
         id="g77252"><g
           id="g77258"><path
             d="m 7.195,0.836 c 0.09,0 0.176,-0.012 0.258,-0.035 1.078,-0.071 2.156,-0.067 3.231,0.008 0.976,0.078 1.921,0.289 2.836,0.636 1.519,0.625 2.558,1.711 3.121,3.254 0.316,0.93 0.507,1.887 0.566,2.867 0.078,1.235 0.051,2.465 -0.086,3.696 -0.105,0.863 -0.328,1.691 -0.672,2.488 -0.637,1.383 -1.672,2.336 -3.101,2.859 C 12.191,17 11,17.207 9.773,17.227 8.398,17.301 7.035,17.195 5.684,16.918 3.203,16.367 1.668,14.852 1.09,12.375 0.844,11.262 0.73,10.133 0.754,8.992 0.727,7.781 0.855,6.582 1.141,5.402 1.75,3.09 3.219,1.656 5.547,1.102 6.09,0.969 6.641,0.879 7.195,0.836 Z"
             style="fill:url(#radialGradient77264-6);fill-rule:evenodd;stroke:none"
             id="path77266" /></g></g></g><path
       d="M 14,12.855 H 7.039 c -0.277,0 -0.5,0.215 -0.5,0.481 0,0.262 0.223,0.476 0.5,0.476 H 14 c 0.277,0 0.5,-0.214 0.5,-0.476 0,-0.266 -0.223,-0.481 -0.5,-0.481 z"
       style="fill:#fafafa;fill-opacity:1;fill-rule:nonzero;stroke:none"
       id="path77268" /><path
       d="M 4.059,4.191 C 3.965,4.18 3.863,4.195 3.777,4.238 3.688,4.277 3.617,4.344 3.566,4.426 3.535,4.48 3.512,4.539 3.504,4.602 3.496,4.664 3.5,4.73 3.516,4.789 3.535,4.852 3.562,4.906 3.602,4.957 3.645,5.008 3.691,5.047 3.75,5.078 L 9.094,8.039 3.75,11.004 c -0.059,0.031 -0.105,0.074 -0.148,0.121 -0.04,0.051 -0.067,0.109 -0.086,0.168 -0.016,0.062 -0.02,0.125 -0.012,0.187 0.008,0.063 0.031,0.122 0.062,0.176 0.141,0.231 0.442,0.309 0.684,0.176 L 10.277,8.488 C 10.352,8.445 10.414,8.387 10.453,8.316 10.496,8.246 10.52,8.164 10.516,8.082 10.52,8.066 10.52,8.055 10.52,8.043 10.52,8.027 10.52,8.016 10.516,8 10.516,7.918 10.496,7.84 10.453,7.77 10.41,7.699 10.352,7.637 10.277,7.598 L 4.25,4.25 C 4.191,4.219 4.125,4.199 4.059,4.191 Z"
       style="fill:#fafafa;fill-opacity:1;fill-rule:nonzero;stroke:none"
       id="path77270" /><path
       d="m 13.488,8.668 c -1.586,0 -3.105,0.629 -4.226,1.754 -1.121,1.121 -1.75,2.64 -1.75,4.226 0,0.895 0.203,1.774 0.593,2.579 0.555,0.031 1.11,0.031 1.668,0 1.227,-0.02 2.415,-0.227 3.575,-0.618 1.429,-0.523 2.464,-1.476 3.101,-2.859 0.344,-0.797 0.567,-1.625 0.672,-2.488 0.047,-0.43 0.078,-0.856 0.098,-1.285 C 16.16,9.129 14.844,8.668 13.488,8.668 Z"
       style="fill:#32a8ff;fill-opacity:1;fill-rule:nonzero;stroke:none"
       id="path77272" /><path
       d="m 10.5,11.656 v 0.5 c 0,0.274 0.227,0.5 0.496,0.5 1.852,0 3.512,1.137 4.184,2.86 0.269,-0.243 0.508,-0.52 0.722,-0.821 -0.898,-1.8 -2.757,-3.039 -4.906,-3.039 z m 0,1.996 v 0.496 c 0,0.274 0.227,0.5 0.496,0.5 1.164,0 2.168,0.801 2.43,1.93 0.324,-0.121 0.629,-0.266 0.91,-0.433 -0.441,-1.481 -1.797,-2.493 -3.34,-2.493 z m 0.996,1.993 c -0.785,0.003 -1.262,0.875 -0.836,1.535 0.61,-0.055 1.207,-0.157 1.797,-0.309 0.148,-0.621 -0.32,-1.223 -0.961,-1.226 z"
       style="fill:#ffffff;fill-opacity:1;fill-rule:nonzero;stroke:none"
       id="path77274" /></g></svg>
